X:1
T:Title
%%score { 1 | 2 }
L:1/8
M:4/4
K:G
V:1 treble nm="Grand Piano"
V:2 bass 
V:1
 z4 z2[Q:1/4=112] B2 | A2 G2 G2 E2 | F6 [EFc]2 | [DFB]2 [CFA]2 [CFA]2 F2 | G6 d2 | c2 B2 B2 B2 | %6
 A2 [G,^CE]2 [A,=CG]2 [A,CF]2 | [G,CE]2 [F,CD]2[K:treble] [G,DG]2 [DA]2 | [DB]6 d2 | d6 G2 | %10
 F6 [Fd]2 | [Fd]6 F2 |[M:3/4] G6 |] %13
V:2
 z4 z2 [G,D]2 | [G,CD]2 [G,B,D]2 [E,A,^C]2 [E,A,C]2 | [D,A,C]6 D,2 | D,2 D,2 D,2 [D,A,D]2 | %4
 [G,B,D]6 [B,DG]2 | [A,DF]2 [G,DG]2 [G,DG]2 [G,DG]2 | [E,G,^C]2 A,,2 D,2 D,2 | %7
 D,2 D,C, B,,2 [A,,F,]2 | [G,,G,]6[K:treble] [G,B,G]2 | [G,B,G]6[K:bass] [G,B,D]2 | %10
 [A,CD]6 [D,A,]2 | [D,A,]6 [D,CD]2 |[M:3/4] [G,B,D]6 |] %13

